X:2070
T:Branle Gay
R:Branle
A:Normandie
O:France
M:C|
L:1/4
Q:1/2=100
K:Bb
B A| G d d ^c|d =cBA|Gd ^c2|d2 "," d =e| f f/2-e/2 d d/2-c/2| B f f e|d
c B2| A2||!
|:B>c| d Bc/2B/2 A/2B/2|G c c d |c B A2| ">" G2:|
